X:127
T:Saxon's
R:reel
M:4/4
L:1/8
Z:robin.beceh@mcgill.ca
S:Swaledale Squeeze 2006
K:D
AF | D2d2d2cd | ecAc d2d2| fdfd gege | afdf ecAF | D2d2d2 cd | ecAc d2d2 | fdfd cBA^G | A2A2A2 ::
fg | agfe dcBA | B2G2G2ga | bagf gfed | c2A2A2 fg | afaf bgbg | afaf bgbg | afbg fedc | d2d2d2 :|
